icon/ir/multiple-pages-add.svg

<svg stroke-width="1.5" viewBox="0 0 24 24" fill="none" xmlns="http://www.w3.org/2000/svg" height="1em" width="1em">
  <path d="M1.99219 19H4.99219M7.99219 19H4.99219M4.99219 19V16M4.99219 19V22" stroke="currentColor" stroke-linecap="round" stroke-linejoin="round"/>
  <path d="M7 2L16.5 2L21 6.5V19" stroke="currentColor" stroke-linecap="round" stroke-linejoin="round"/>
  <path d="M11 22H16.5C17.3284 22 18 21.3284 18 20.5V8.74853C18 8.5894 17.9368 8.43679 17.8243 8.32426L14.6757 5.17574C14.5632 5.06321 14.4106 5 14.2515 5H4.5C3.67157 5 3 5.67157 3 6.5V13" stroke="currentColor" stroke-linecap="round" stroke-linejoin="round"/>
  <path d="M14 8.4V5.35355C14 5.15829 14.1583 5 14.3536 5C14.4473 5 14.5372 5.03725 14.6036 5.10355L17.8964 8.39645C17.9628 8.46275 18 8.55268 18 8.64645C18 8.84171 17.8417 9 17.6464 9H14.6C14.2686 9 14 8.73137 14 8.4Z" fill="currentColor" stroke="currentColor" stroke-linecap="round" stroke-linejoin="round"/>
</svg>

<svg width="24" height="24" stroke-width="1.5" fill="none" xmlns="http://www.w3.org/2000/svg"><path d="M1.992 19h3m3 0h-3m0 0v-3m0 3v3M7 2h9.5L21 6.5V19" stroke="currentColor" stroke-linecap="round" stroke-linejoin="round"/><path d="M11 22h5.5a1.5 1.5 0 0 0 1.5-1.5V8.749a.6.6 0 0 0-.176-.425l-3.148-3.148A.6.6 0 0 0 14.25 5H4.5A1.5 1.5 0 0 0 3 6.5V13" stroke="currentColor" stroke-linecap="round" stroke-linejoin="round"/><path d="M14 8.4V5.354a.354.354 0 0 1 .604-.25l3.292 3.292a.353.353 0 0 1-.25.604H14.6a.6.6 0 0 1-.6-.6Z" fill="currentColor" stroke="currentColor" stroke-linecap="round" stroke-linejoin="round"/></svg>
